X: 37608
T: Smoky Bar, The
R: reel
M: 4/4
K: Dmajor
~D3 A BdAF|~D2 AF EDEA|~D3 A BdAB|1 dBAF EGFE:|2 dBAF EFAB||
~d3 f efdB|~A2 FD EGFE|~d3 f efdf|afed BABc|
~d3 f efdB|~A2 (3FED EDEA|~d3 f ~e3 f||

